X:11
T:Ronde des roses
R:
O:Alsace - Elsass
A:Strasbourg
S:
B:La tradition Alsacienne.
Z:transcription (partition) : <anamnese@laposte.net>
N:p.52
N:1930
M:C|
L:1/4
Q:1/4=130
K:F
"[A]" cdcd | c2 A2 | cdcd | c2 A2 |"[B]" ccAF | ddd2 |
"[C]" ecde | f FF2 | "[D]" AFc2 |
